.docs/icon/white/magnifying_glass.svg

<?xml version="1.0" encoding="UTF-8" standalone="no"?>
<svg
   width="16"
   height="16"
   viewBox="0 0 16 16"
   fill="#ffffff"
   version="1.1"
   id="svg1"
   sodipodi:docname="magnifying_glass.svg"
   inkscape:version="1.4.2 (ebf0e940d0, 2025-05-08)"
   xmlns:inkscape="http://www.inkscape.org/namespaces/inkscape"
   xmlns:sodipodi="http://sodipodi.sourceforge.net/DTD/sodipodi-0.dtd"
   xmlns="http://www.w3.org/2000/svg"
   xmlns:svg="http://www.w3.org/2000/svg">
  <defs
     id="defs1" />
  <sodipodi:namedview
     id="namedview1"
     pagecolor="#505050"
     bordercolor="#eeeeee"
     borderopacity="1"
     inkscape:showpageshadow="0"
     inkscape:pageopacity="0"
     inkscape:pagecheckerboard="0"
     inkscape:deskcolor="#505050"
     showgrid="true"
     inkscape:zoom="12.350468"
     inkscape:cx="3.1577752"
     inkscape:cy="9.1089668"
     inkscape:window-width="1920"
     inkscape:window-height="1080"
     inkscape:window-x="0"
     inkscape:window-y="0"
     inkscape:window-maximized="1"
     inkscape:current-layer="svg1">
    <inkscape:grid
       id="grid1"
       units="px"
       originx="0"
       originy="0"
       spacingx="0.5"
       spacingy="0.5"
       empcolor="#0099e5"
       empopacity="0.30196078"
       color="#0099e5"
       opacity="0.14901961"
       empspacing="5"
       enabled="true"
       visible="true" />
  </sodipodi:namedview>
  <path
     d="M 9,6 C 9,7.6568543 7.6568543,9 6,9 4.3431457,9 3,7.6568543 3,6 3,4.3431457 4.3431457,3 6,3 7.6568543,3 9,4.3431457 9,6 Z M 6,0.9999999 c -2.7614238,0 -5,2.2385762 -5,5 C 1,8.7614237 3.2385762,11 6,11 6.9796546,10.9984 7.9372662,10.709112 8.7539003,10.167971 l 4.3173107,4.317167 c 0.390526,0.390513 1.0235,0.39052 1.4141,0 0.39052,-0.39052 0.39052,-1.0235 0,-1.4141 L 10.168,8.7538703 c 0.541142,-0.8166341 0.830463,-1.7742457 0.83203,-2.7539004 0,-2.7614235 -2.2385765,-4.9999997 -5,-5 z"
     id="path1"
     sodipodi:nodetypes="ssssscsccscccccc" />
</svg>

<svg xmlns="http://www.w3.org/2000/svg" width="16" height="16" viewBox="0 0 16 16" fill="#ffffff">
	<path
		d="m9 6c0 1.6569-1.3431 3-3 3s-3-1.3431-3-3 1.3431-3 3-3 3 1.3431 3 3zm-3-5c-2.7614 0-5 2.2386-5 5s2.2386 5 5 5c0.97965-0.0016 1.9373-0.29089 2.7539-0.83203l4.3173 4.3172c0.39053 0.39051 1.0235 0.39052 1.4141 0 0.39052-0.39052 0.39052-1.0235 0-1.4141l-4.3173-4.3172c0.54114-0.81663 0.83046-1.7742 0.83203-2.7539 0-2.7614-2.2386-5-5-5z"
	/>
</svg>
